panorama-wide-angle.svg

<svg fill="currentColor" viewBox="0 0 24 24"><path d="M12 4c-4 0-6.8.6-9 1-.5 2-1 3.9-1 7 0 3 .5 5 1 7 2.2.4 5 1 9 1s6.9-.6 9-1c.6-2 1-4 1-7s-.5-5.1-1-7c-2.1-.4-5-1-9-1"/></svg>

<svg  viewBox="0 0 24 24" fill="currentColor"><path  d="M12 4C8 4 5.2 4.6 3 5C2.5 7 2 8.9 2 12C2 15 2.5 17 3 19C5.2 19.4 8 20 12 20C16 20 18.9 19.4 21 19C21.6 17 22 15 22 12C22 9 21.5 6.9 21 5C18.9 4.6 16 4 12 4Z"/></svg>
